ligands/tridentate/dien-diethylenetriamine.svg

<svg height="256" viewBox="0 0 256 256" width="256" xmlns="http://www.w3.org/2000/svg"><path d="m0 0h256v256h-256z" fill="#fff"/><ellipse cx="127.8" cy="98" fill="#ff7f7f" fill-rule="evenodd" rx="22.4" ry="22.4" stroke="#ff7f7f"/><g fill="none" stroke="#000" stroke-width="2"><path d="m42.3 94.7-29.5 40.6"/><path d="m12.8 135.3 43.9 60.5"/><path d="m56.7 195.8 56.6-18.4"/><path d="m142.2 177.5 56.6 18.4"/><path d="m198.8 195.9 44-60.4"/><path d="m242.8 135.5-29.4-40.6"/><path d="m71.2 79.6 42.2 13.7"/><path d="m127.8 158.3v-37.8"/><path d="m184.5 79.7-42.2 13.6"/><path d="m14.3 133.3-1.5 2 2.2 3" stroke-miterlimit="10"/><path d="m54.5 192.8 2.2 3 2.8-.9" stroke-miterlimit="10"/><path d="m196 195 2.8.9 2.2-3" stroke-miterlimit="10"/><path d="m240.6 138.5 2.2-3-1.5-2.1" stroke-miterlimit="10"/></g><text x="115.8" y="118"/><text font-family="sans-serif" font-size="40" x="44.8" y="94.9">N</text><text font-family="sans-serif" font-size="40" x="44.8" y="59.7">H</text><text font-family="sans-serif" font-size="26" x="72.4" y="75.7">2</text><text font-family="sans-serif" font-size="40" x="115.8" y="192.7">N</text><text font-family="sans-serif" font-size="40" x="115.8" y="227.9">H</text><text font-family="sans-serif" font-size="40" x="186.9" y="95">N</text><text font-family="sans-serif" font-size="40" x="186.9" y="59.8">H</text><text font-family="sans-serif" font-size="26" x="214.5" y="75.8">2</text></svg>

<?xml version='1.0' encoding='iso-8859-1'?>
<svg version='1.1' baseProfile='full'
              xmlns='http://www.w3.org/2000/svg'
                      xmlns:rdkit='http://www.rdkit.org/xml'
                      xmlns:xlink='http://www.w3.org/1999/xlink'
                  xml:space='preserve'
width='256px' height='256px' viewBox='0 0 256 256'>
<!-- END OF HEADER -->
<rect style='opacity:1.0;fill:#FFFFFF;stroke:none' width='256.0' height='256.0' x='0.0' y='0.0'> </rect>
<ellipse cx='127.8' cy='98.0' rx='22.4' ry='22.4' class='atom-0'  style='fill:#FF7F7F;fill-rule:evenodd;stroke:#FF7F7F;stroke-width:1.0px;stroke-linecap:butt;stroke-linejoin:miter;stroke-opacity:1' />
<path class='bond-0 atom-1 atom-2' d='M 42.3,94.7 L 12.8,135.3' style='fill:none;fill-rule:evenodd;stroke:#000000;stroke-width:2.0px;stroke-linecap:butt;stroke-linejoin:miter;stroke-opacity:1' />
<path class='bond-1 atom-2 atom-3' d='M 12.8,135.3 L 56.7,195.8' style='fill:none;fill-rule:evenodd;stroke:#000000;stroke-width:2.0px;stroke-linecap:butt;stroke-linejoin:miter;stroke-opacity:1' />
<path class='bond-2 atom-3 atom-4' d='M 56.7,195.8 L 113.3,177.4' style='fill:none;fill-rule:evenodd;stroke:#000000;stroke-width:2.0px;stroke-linecap:butt;stroke-linejoin:miter;stroke-opacity:1' />
<path class='bond-3 atom-4 atom-5' d='M 142.2,177.5 L 198.8,195.9' style='fill:none;fill-rule:evenodd;stroke:#000000;stroke-width:2.0px;stroke-linecap:butt;stroke-linejoin:miter;stroke-opacity:1' />
<path class='bond-4 atom-5 atom-6' d='M 198.8,195.9 L 242.8,135.5' style='fill:none;fill-rule:evenodd;stroke:#000000;stroke-width:2.0px;stroke-linecap:butt;stroke-linejoin:miter;stroke-opacity:1' />
<path class='bond-5 atom-6 atom-7' d='M 242.8,135.5 L 213.4,94.9' style='fill:none;fill-rule:evenodd;stroke:#000000;stroke-width:2.0px;stroke-linecap:butt;stroke-linejoin:miter;stroke-opacity:1' />
<path class='bond-6 atom-1 atom-0' d='M 71.2,79.6 L 113.4,93.3' style='fill:none;fill-rule:evenodd;stroke:#000000;stroke-width:2.0px;stroke-linecap:butt;stroke-linejoin:miter;stroke-opacity:1' />
<path class='bond-7 atom-4 atom-0' d='M 127.8,158.3 L 127.8,120.5' style='fill:none;fill-rule:evenodd;stroke:#000000;stroke-width:2.0px;stroke-linecap:butt;stroke-linejoin:miter;stroke-opacity:1' />
<path class='bond-8 atom-7 atom-0' d='M 184.5,79.7 L 142.3,93.3' style='fill:none;fill-rule:evenodd;stroke:#000000;stroke-width:2.0px;stroke-linecap:butt;stroke-linejoin:miter;stroke-opacity:1' />
<path d='M 14.3,133.3 L 12.8,135.3 L 15.0,138.3' style='fill:none;stroke:#000000;stroke-width:2.0px;stroke-linecap:butt;stroke-linejoin:miter;stroke-miterlimit:10;stroke-opacity:1;' />
<path d='M 54.5,192.8 L 56.7,195.8 L 59.5,194.9' style='fill:none;stroke:#000000;stroke-width:2.0px;stroke-linecap:butt;stroke-linejoin:miter;stroke-miterlimit:10;stroke-opacity:1;' />
<path d='M 196.0,195.0 L 198.8,195.9 L 201.0,192.9' style='fill:none;stroke:#000000;stroke-width:2.0px;stroke-linecap:butt;stroke-linejoin:miter;stroke-miterlimit:10;stroke-opacity:1;' />
<path d='M 240.6,138.5 L 242.8,135.5 L 241.3,133.4' style='fill:none;stroke:#000000;stroke-width:2.0px;stroke-linecap:butt;stroke-linejoin:miter;stroke-miterlimit:10;stroke-opacity:1;' />
<text x='115.8' y='118.0' class='atom-0' style='font-size:40px;font-style:normal;font-weight:normal;fill-opacity:1;stroke:none;font-family:sans-serif;text-anchor:start;fill:#000000' ></text>
<text x='44.8' y='94.9' class='atom-1' style='font-size:40px;font-style:normal;font-weight:normal;fill-opacity:1;stroke:none;font-family:sans-serif;text-anchor:start;fill:#000000' >N</text>
<text x='44.8' y='59.7' class='atom-1' style='font-size:40px;font-style:normal;font-weight:normal;fill-opacity:1;stroke:none;font-family:sans-serif;text-anchor:start;fill:#000000' >H</text>
<text x='72.4' y='75.7' class='atom-1' style='font-size:26px;font-style:normal;font-weight:normal;fill-opacity:1;stroke:none;font-family:sans-serif;text-anchor:start;fill:#000000' >2</text>
<text x='115.8' y='192.7' class='atom-4' style='font-size:40px;font-style:normal;font-weight:normal;fill-opacity:1;stroke:none;font-family:sans-serif;text-anchor:start;fill:#000000' >N</text>
<text x='115.8' y='227.9' class='atom-4' style='font-size:40px;font-style:normal;font-weight:normal;fill-opacity:1;stroke:none;font-family:sans-serif;text-anchor:start;fill:#000000' >H</text>
<text x='186.9' y='95.0' class='atom-7' style='font-size:40px;font-style:normal;font-weight:normal;fill-opacity:1;stroke:none;font-family:sans-serif;text-anchor:start;fill:#000000' >N</text>
<text x='186.9' y='59.8' class='atom-7' style='font-size:40px;font-style:normal;font-weight:normal;fill-opacity:1;stroke:none;font-family:sans-serif;text-anchor:start;fill:#000000' >H</text>
<text x='214.5' y='75.8' class='atom-7' style='font-size:26px;font-style:normal;font-weight:normal;fill-opacity:1;stroke:none;font-family:sans-serif;text-anchor:start;fill:#000000' >2</text>
</svg>
